X:728
T:Reel 728
M:4/4
K:Gmaj
L:1/8
g> (3 (3GGB B >G (3BAB |c>A (3AAA d>A (3ABc | (3BcB d>B  (3BBB d>B (3AGA | (3BcB g>G F>AD>F| (3BAB  (3BBB c>A (3AGA |d>g (3gfg d>B (3GFB |c>A (3AGA a>gf>e| (3fed  (3cBA B2BA|G2fG G2d2|G>B (3BAB d2e2|G>g (3gfg f>B (3efg |d>B (3BAB d2e2|G2B (3GFG d2B2| (3ABA =fA g2B2|G>B (3BAB d2 (3BAG |A>D (3FGA =f2d2|
